suite-common/icons/assets/icons/seedShamir.svg

<svg xmlns="http://www.w3.org/2000/svg" xml:space="preserve" style="fill-rule:evenodd;clip-rule:evenodd;stroke-linejoin:round;stroke-miterlimit:2" viewBox="0 0 48 49">
  <path d="M13.678 7.832c-.163.172-.316.415-.341.54-.058.296.19.863.435.996.224.122 1.468.137 17.644.22 6.257.031 11.396.077 11.42.101s.077 4.74.119 10.48c.049 6.792.105 10.513.158 10.654.107.28.531.536.887.536s.778-.255.892-.539c.062-.155.099-3.372.126-10.86l.037-10.64-.293-.48c-.381-.624-.554-.803-.977-1.007-.337-.163-.503-.171-5.206-.237-2.673-.038-9.302-.071-14.731-.073l-9.873-.003zm-3.986 3.996c-.464.464-.498.938-.099 1.365.21.224.237.23 1.291.279.592.027 7.113.078 14.493.112 7.379.034 13.435.082 13.459.105.024.024.077 4.74.119 10.48.049 6.792.105 10.513.158 10.654.107.28.531.536.887.536s.778-.255.892-.539c.062-.155.1-3.375.129-10.829l.04-10.61-.23-.423c-.314-.577-.825-1.086-1.202-1.196-.452-.133-8.99-.234-20.169-.238L10 11.52zM7.2 15.675c-1.691.042-1.818.056-2.092.227-.311.193-.785.682-.961.991-.087.152-.111 1.915-.129 9.467-.024 9.793.029 12.632.244 13.043.274.523.841.915 1.538 1.062.266.056 5.235.104 14.85.142l14.45.058.51-.286c.539-.303.872-.614 1.219-1.138l.211-.318-.001-10.802-.001-10.801-.242-.424c-.31-.54-.81-1.026-1.184-1.15-.223-.074-3.386-.099-13.452-.107-7.238-.005-13.97.011-14.96.036m27.722 8.465c.067 7.221.003 14.263-.13 14.345-.134.083-13.016.14-21.158.094l-7.531-.043-.051-.768c-.067-1.013-.066-16.742.001-18.668l.052-1.5h28.756zM9.376 22.834c-.295.336-.373.582-.304.954.061.322.327.589.695.694.424.122 22.194.096 22.55-.027.334-.114.643-.541.643-.887 0-.417-.241-.794-.56-.876-.155-.039-5.304-.088-11.526-.109l-11.245-.037zm.887 4.824c-.794.027-.82.034-.98.258-.339.476-.272 1.157.141 1.427.195.128.974.137 11.576.137s11.381-.009 11.576-.137c.427-.28.482-1 .111-1.463l-.192-.24-10.707-.005c-5.89-.003-11.075.007-11.525.023m-.898 5.188c-.286.326-.362.573-.291.95.061.327.421.657.788.725.142.026 3.21.036 6.818.023 7.291-.027 6.909.004 7.189-.569.132-.269.137-.347.048-.666-.058-.207-.179-.412-.283-.48-.208-.136-1.353-.164-9.29-.224l-4.736-.036z"/>
</svg>

<svg xmlns="http://www.w3.org/2000/svg" xml:space="preserve" style="fill-rule:evenodd;clip-rule:evenodd;stroke-linejoin:round;stroke-miterlimit:2" viewBox="0 0 48 49"><path d="M13.678 7.832 C 13.515 8.004,13.362 8.247,13.337 8.372 C 13.279 8.668,13.527 9.235,13.772 9.368 C 13.996 9.490,15.240 9.505,31.416 9.588 C 37.673 9.619,42.812 9.665,42.836 9.689 C 42.859 9.713,42.913 14.429,42.955 20.169 C 43.004 26.961,43.060 30.682,43.113 30.823 C 43.220 31.103,43.644 31.359,44.000 31.359 C 44.356 31.359,44.778 31.104,44.892 30.820 C 44.954 30.665,44.991 27.448,45.018 19.960 L 45.055 9.320 44.762 8.840 C 44.381 8.216,44.208 8.037,43.785 7.833 C 43.448 7.670,43.282 7.662,38.579 7.596 C 35.906 7.558,29.277 7.525,23.848 7.523 L 13.975 7.520 13.678 7.832 M9.692 11.828 C 9.228 12.292,9.194 12.766,9.593 13.193 C 9.803 13.417,9.830 13.423,10.884 13.472 C 11.476 13.499,17.997 13.550,25.377 13.584 C 32.756 13.618,38.812 13.666,38.836 13.689 C 38.860 13.713,38.913 18.429,38.955 24.169 C 39.004 30.961,39.060 34.682,39.113 34.823 C 39.220 35.103,39.644 35.359,40.000 35.359 C 40.356 35.359,40.778 35.104,40.892 34.820 C 40.954 34.665,40.992 31.445,41.021 23.991 L 41.061 13.381 40.831 12.958 C 40.517 12.381,40.006 11.872,39.629 11.762 C 39.177 11.629,30.639 11.528,19.460 11.524 L 10.000 11.520 9.692 11.828 M7.200 15.675 C 5.509 15.717,5.382 15.731,5.108 15.902 C 4.797 16.095,4.323 16.584,4.147 16.893 C 4.060 17.045,4.036 18.808,4.018 26.360 C 3.994 36.153,4.047 38.992,4.262 39.403 C 4.536 39.926,5.103 40.318,5.800 40.465 C 6.066 40.521,11.035 40.569,20.650 40.607 L 35.100 40.665 35.610 40.379 C 36.149 40.076,36.482 39.765,36.829 39.241 L 37.040 38.923 37.039 28.121 L 37.038 17.320 36.796 16.896 C 36.486 16.356,35.986 15.870,35.612 15.746 C 35.389 15.672,32.226 15.647,22.160 15.639 C 14.922 15.634,8.190 15.650,7.200 15.675 M34.922 24.140 C 34.989 31.361,34.925 38.403,34.792 38.485 C 34.658 38.568,21.776 38.625,13.634 38.579 L 6.103 38.536 6.052 37.768 C 5.985 36.755,5.986 21.026,6.053 19.100 L 6.105 17.600 20.483 17.600 L 34.861 17.600 34.922 24.140 M9.376 22.834 C 9.081 23.170,9.003 23.416,9.072 23.788 C 9.133 24.110,9.399 24.377,9.767 24.482 C 10.191 24.604,31.961 24.578,32.317 24.455 C 32.651 24.341,32.960 23.914,32.960 23.568 C 32.960 23.151,32.719 22.774,32.400 22.692 C 32.245 22.653,27.096 22.604,20.874 22.583 L 9.629 22.546 9.376 22.834 M10.263 27.658 C 9.469 27.685,9.443 27.692,9.283 27.916 C 8.944 28.392,9.011 29.073,9.424 29.343 C 9.619 29.471,10.398 29.480,21.000 29.480 C 31.602 29.480,32.381 29.471,32.576 29.343 C 33.003 29.063,33.058 28.343,32.687 27.880 L 32.495 27.640 21.788 27.635 C 15.898 27.632,10.713 27.642,10.263 27.658 M9.365 32.846 C 9.079 33.172,9.003 33.419,9.074 33.796 C 9.135 34.123,9.495 34.453,9.862 34.521 C 10.004 34.547,13.072 34.557,16.680 34.544 C 23.971 34.517,23.589 34.548,23.869 33.975 C 24.001 33.706,24.006 33.628,23.917 33.309 C 23.859 33.102,23.738 32.897,23.634 32.829 C 23.426 32.693,22.281 32.665,14.344 32.605 L 9.608 32.569 9.365 32.846 " stroke="none" fill-rule="evenodd" fill="black"></path></svg>
